svg/color/ltr.svg

<?xml version="1.0" encoding="UTF-8" ?>
<!DOCTYPE svg PUBLIC "-//W3C//DTD SVG 1.1//EN" "http://www.w3.org/Graphics/SVG/1.1/DTD/svg11.dtd">
<svg width="250pt" height="250pt" viewBox="0 0 250 250" version="1.1" xmlns="http://www.w3.org/2000/svg">
<g id="#ffffffff">
<path fill="#ffffff" opacity="1.00" d=" M 0.00 0.00 L 71.35 0.00 C 71.30 12.00 71.32 24.00 71.35 35.99 C 71.42 46.37 71.09 56.75 71.52 67.11 C 78.42 68.76 85.34 70.35 92.36 71.45 C 92.73 59.63 92.44 47.81 92.50 35.99 C 92.44 25.72 92.72 15.44 92.36 5.17 C 85.70 3.37 78.92 1.99 72.31 0.00 L 250.00 0.00 L 250.00 3.11 C 204.72 14.08 159.42 25.04 114.23 36.36 C 113.56 43.01 113.58 49.72 114.15 56.38 C 119.66 55.51 125.05 54.09 130.44 52.67 C 170.31 43.01 210.15 33.15 250.00 23.40 L 250.00 43.52 C 224.82 49.94 199.52 55.94 174.28 62.15 C 160.66 65.69 146.82 68.42 133.35 72.49 C 121.90 74.58 110.76 77.99 99.40 80.46 C 81.54 85.01 63.59 89.15 45.72 93.65 C 30.51 97.56 15.10 100.72 0.00 105.03 L 0.00 84.80 C 16.50 80.39 33.15 76.55 49.74 72.48 C 50.29 65.80 50.25 59.09 49.85 52.40 C 33.07 55.57 16.63 60.38 0.00 64.24 L 0.00 0.00 Z" />
<path fill="#ffffff" opacity="1.00" d=" M 202.08 75.94 C 218.08 72.19 233.99 68.09 250.00 64.42 L 250.00 84.55 C 233.34 88.26 216.88 92.85 200.20 96.49 C 199.75 103.13 199.73 109.81 200.15 116.45 C 208.47 115.24 216.51 112.72 224.68 110.80 C 233.15 108.87 241.54 106.59 250.00 104.59 L 250.00 124.67 C 226.28 130.91 202.30 136.15 178.56 142.32 C 166.85 145.24 155.03 147.76 143.43 151.09 C 126.42 154.83 109.52 159.12 92.67 163.55 C 92.48 158.70 92.48 153.84 92.50 148.99 C 92.52 140.27 92.57 131.56 92.49 122.84 C 85.68 120.88 78.70 119.65 71.73 118.46 C 71.34 121.28 71.22 124.14 71.25 126.99 C 71.41 147.65 71.15 168.32 71.37 188.99 C 119.31 177.06 167.34 165.53 215.28 153.60 C 226.83 150.65 238.57 148.41 250.00 144.99 L 250.00 165.23 C 233.49 169.59 216.86 173.49 200.26 177.51 C 199.72 184.20 199.74 190.92 200.14 197.61 C 206.99 196.59 213.66 194.63 220.41 193.10 C 230.22 190.43 240.20 188.46 250.00 185.77 L 250.00 250.00 L 178.69 250.00 C 178.68 238.34 178.69 226.67 178.66 215.01 C 178.60 204.30 178.90 193.58 178.50 182.88 C 171.49 181.39 164.54 179.57 157.42 178.72 C 157.38 196.81 157.43 214.90 157.39 232.99 C 157.40 236.99 157.09 241.03 157.85 244.98 C 164.17 246.52 170.51 247.98 176.70 250.00 L 0.00 250.00 L 0.00 246.88 C 35.48 238.41 70.91 229.66 106.31 220.84 C 116.14 218.62 125.92 216.16 135.68 213.66 C 135.74 207.01 135.74 200.35 135.68 193.71 C 128.58 194.78 121.71 196.85 114.76 198.56 C 96.59 202.72 78.59 207.55 60.43 211.72 C 53.11 213.72 45.63 215.14 38.39 217.45 C 25.49 220.05 12.77 223.45 0.00 226.62 L 0.00 206.48 C 16.52 202.37 33.00 198.08 49.63 194.42 C 50.37 187.61 50.21 180.75 49.87 173.93 C 33.16 177.59 16.62 182.00 0.00 186.02 L 0.00 165.81 C 16.57 161.62 33.22 157.79 49.79 153.60 C 50.25 146.92 50.27 140.23 49.82 133.55 C 40.95 134.90 32.36 137.59 23.64 139.62 C 15.72 141.43 7.83 143.35 0.00 145.51 L 0.00 125.33 C 37.00 115.90 74.20 107.23 111.23 97.90 C 126.64 94.31 142.00 90.54 157.29 86.47 C 157.45 90.64 157.48 94.82 157.47 99.00 C 157.50 108.38 157.24 117.76 157.60 127.14 C 164.51 129.06 171.54 130.81 178.71 131.41 C 178.84 114.75 178.45 98.09 178.89 81.43 C 186.71 80.01 194.35 77.77 202.08 75.94 M 114.31 117.46 C 113.40 124.10 113.78 130.82 113.96 137.50 C 121.28 136.38 128.46 134.39 135.65 132.59 C 135.76 125.79 135.80 118.98 135.62 112.17 C 128.55 114.07 121.36 115.50 114.31 117.46 Z" />
</g>
<g id="#c82779ff">
<path fill="#c82779" opacity="1.00" d=" M 71.35 0.00 L 72.31 0.00 C 78.92 1.99 85.70 3.37 92.36 5.17 C 92.72 15.44 92.44 25.72 92.50 35.99 C 85.45 36.00 78.40 36.00 71.35 35.99 C 71.32 24.00 71.30 12.00 71.35 0.00 Z" />
</g>
<g id="#c4287aff">
<path fill="#c4287a" opacity="1.00" d=" M 114.23 36.36 C 159.42 25.04 204.72 14.08 250.00 3.11 L 250.00 23.40 C 210.15 33.15 170.31 43.01 130.44 52.67 C 125.05 54.09 119.66 55.51 114.15 56.38 C 113.58 49.72 113.56 43.01 114.23 36.36 Z" />
</g>
<g id="#bb287cff">
<path fill="#bb287c" opacity="1.00" d=" M 71.35 35.99 C 78.40 36.00 85.45 36.00 92.50 35.99 C 92.44 47.81 92.73 59.63 92.36 71.45 C 85.34 70.35 78.42 68.76 71.52 67.11 C 71.09 56.75 71.42 46.37 71.35 35.99 Z" />
</g>
<g id="#b8287dff">
<path fill="#b8287d" opacity="1.00" d=" M 174.28 62.15 C 199.52 55.94 224.82 49.94 250.00 43.52 L 250.00 64.42 C 233.99 68.09 218.08 72.19 202.08 75.94 C 201.95 75.26 201.68 73.89 201.54 73.21 C 186.04 72.71 170.51 73.18 155.00 73.00 C 147.78 72.79 140.52 73.66 133.35 72.49 C 146.82 68.42 160.66 65.69 174.28 62.15 Z" />
</g>
<g id="#b5287eff">
<path fill="#b5287e" opacity="1.00" d=" M 0.00 64.24 C 16.63 60.38 33.07 55.57 49.85 52.40 C 50.25 59.09 50.29 65.80 49.74 72.48 C 33.15 76.55 16.50 80.39 0.00 84.80 L 0.00 64.24 Z" />
</g>
<g id="#ae297fff">
<path fill="#ae297f" opacity="1.00" d=" M 99.40 80.46 C 110.76 77.99 121.90 74.58 133.35 72.49 C 140.52 73.66 147.78 72.79 155.00 73.00 C 170.51 73.18 186.04 72.71 201.54 73.21 C 201.68 73.89 201.95 75.26 202.08 75.94 C 194.35 77.77 186.71 80.01 178.89 81.43 L 178.11 81.62 C 177.67 87.35 177.94 93.11 177.76 98.85 C 171.00 99.18 164.23 99.00 157.47 99.00 C 157.48 94.82 157.45 90.64 157.29 86.47 C 142.00 90.54 126.64 94.31 111.23 97.90 C 105.59 94.94 99.09 96.12 93.00 96.00 C 77.15 95.98 61.30 96.04 45.45 96.00 C 45.52 95.41 45.65 94.23 45.72 93.65 C 63.59 89.15 81.54 85.01 99.40 80.46 Z" />
</g>
<g id="#a42982ff">
<path fill="#a42982" opacity="1.00" d=" M 178.11 81.62 L 178.89 81.43 C 178.45 98.09 178.84 114.75 178.71 131.41 C 171.54 130.81 164.51 129.06 157.60 127.14 C 157.24 117.76 157.50 108.38 157.47 99.00 C 164.23 99.00 171.00 99.18 177.76 98.85 C 177.94 93.11 177.67 87.35 178.11 81.62 Z" />
</g>
<g id="#a92981ff">
<path fill="#a92981" opacity="1.00" d=" M 200.20 96.49 C 216.88 92.85 233.34 88.26 250.00 84.55 L 250.00 104.59 C 241.54 106.59 233.15 108.87 224.68 110.80 C 216.51 112.72 208.47 115.24 200.15 116.45 C 199.73 109.81 199.75 103.13 200.20 96.49 Z" />
</g>
<g id="#a72981ff">
<path fill="#a72981" opacity="1.00" d=" M 0.00 105.03 C 15.10 100.72 30.51 97.56 45.72 93.65 C 45.65 94.23 45.52 95.41 45.45 96.00 C 61.30 96.04 77.15 95.98 93.00 96.00 C 99.09 96.12 105.59 94.94 111.23 97.90 C 74.20 107.23 37.00 115.90 0.00 125.33 L 0.00 105.03 Z" />
</g>
<g id="#a02a83ff">
<path fill="#a02a83" opacity="1.00" d=" M 114.31 117.46 C 121.36 115.50 128.55 114.07 135.62 112.17 C 135.80 118.98 135.76 125.79 135.65 132.59 C 128.46 134.39 121.28 136.38 113.96 137.50 C 113.78 130.82 113.40 124.10 114.31 117.46 Z" />
</g>
<g id="#912a87ff">
<path fill="#912a87" opacity="1.00" d=" M 71.25 126.99 C 71.22 124.14 71.34 121.28 71.73 118.46 C 72.43 128.57 71.84 138.72 72.26 148.84 C 79.00 149.18 85.75 148.99 92.50 148.99 C 92.48 153.84 92.48 158.70 92.67 163.55 C 109.52 159.12 126.42 154.83 143.43 151.09 C 149.58 152.56 155.80 150.78 162.00 150.95 C 179.85 151.10 197.70 150.95 215.55 151.01 C 215.48 151.66 215.35 152.95 215.28 153.60 C 167.34 165.53 119.31 177.06 71.37 188.99 C 71.15 168.32 71.41 147.65 71.25 126.99 Z" />
</g>
<g id="#9c2a84ff">
<path fill="#9c2a84" opacity="1.00" d=" M 71.73 118.46 C 78.70 119.65 85.68 120.88 92.49 122.84 C 92.57 131.56 92.52 140.27 92.50 148.99 C 85.75 148.99 79.00 149.18 72.26 148.84 C 71.84 138.72 72.43 128.57 71.73 118.46 Z" />
</g>
<g id="#992a85ff">
<path fill="#992a85" opacity="1.00" d=" M 178.56 142.32 C 202.30 136.15 226.28 130.91 250.00 124.67 L 250.00 144.99 C 238.57 148.41 226.83 150.65 215.28 153.60 C 215.35 152.95 215.48 151.66 215.55 151.01 C 197.70 150.95 179.85 151.10 162.00 150.95 C 155.80 150.78 149.58 152.56 143.43 151.09 C 155.03 147.76 166.85 145.24 178.56 142.32 Z" />
</g>
<g id="#962a85ff">
<path fill="#962a85" opacity="1.00" d=" M 23.64 139.62 C 32.36 137.59 40.95 134.90 49.82 133.55 C 50.27 140.23 50.25 146.92 49.79 153.60 C 33.22 157.79 16.57 161.62 0.00 165.81 L 0.00 145.51 C 7.83 143.35 15.72 141.43 23.64 139.62 Z" />
</g>
<g id="#8a2b88ff">
<path fill="#8a2b88" opacity="1.00" d=" M 200.26 177.51 C 216.86 173.49 233.49 169.59 250.00 165.23 L 250.00 185.77 C 240.20 188.46 230.22 190.43 220.41 193.10 C 213.66 194.63 206.99 196.59 200.14 197.61 C 199.74 190.92 199.72 184.20 200.26 177.51 Z" />
</g>
<g id="#872b89ff">
<path fill="#872b89" opacity="1.00" d=" M 0.00 186.02 C 16.62 182.00 33.16 177.59 49.87 173.93 C 50.21 180.75 50.37 187.61 49.63 194.42 C 33.00 198.08 16.52 202.37 0.00 206.48 L 0.00 186.02 Z" />
</g>
<g id="#842b8aff">
<path fill="#842b8a" opacity="1.00" d=" M 157.42 178.72 C 164.54 179.57 171.49 181.39 178.50 182.88 C 178.90 193.58 178.60 204.30 178.66 215.01 C 171.88 215.01 165.09 214.82 158.31 215.16 C 157.99 225.09 158.42 235.05 157.85 244.98 C 157.09 241.03 157.40 236.99 157.39 232.99 C 157.43 214.90 157.38 196.81 157.42 178.72 Z" />
</g>
<g id="#7f2b8bff">
<path fill="#7f2b8b" opacity="1.00" d=" M 114.76 198.56 C 121.71 196.85 128.58 194.78 135.68 193.71 C 135.74 200.35 135.74 207.01 135.68 213.66 C 125.92 216.16 116.14 218.62 106.31 220.84 C 104.93 219.30 103.33 217.72 101.07 218.00 C 87.38 217.94 73.69 218.05 60.00 218.01 C 52.80 217.93 45.56 218.31 38.39 217.45 C 45.63 215.14 53.11 213.72 60.43 211.72 C 78.59 207.55 96.59 202.72 114.76 198.56 Z" />
</g>
<g id="#772c8dff">
<path fill="#772c8d" opacity="1.00" d=" M 158.31 215.16 C 165.09 214.82 171.88 215.01 178.66 215.01 C 178.69 226.67 178.68 238.34 178.69 250.00 L 176.70 250.00 C 170.51 247.98 164.17 246.52 157.85 244.98 C 158.42 235.05 157.99 225.09 158.31 215.16 Z" />
</g>
<g id="#792c8dff">
<path fill="#792c8d" opacity="1.00" d=" M 38.39 217.45 C 45.56 218.31 52.80 217.93 60.00 218.01 C 73.69 218.05 87.38 217.94 101.07 218.00 C 103.33 217.72 104.93 219.30 106.31 220.84 C 70.91 229.66 35.48 238.41 0.00 246.88 L 0.00 226.62 C 12.77 223.45 25.49 220.05 38.39 217.45 Z" />
</g>
</svg>

<?xml version="1.0" encoding="utf-8"?>
<!-- Generator: Adobe Illustrator 26.0.3, SVG Export Plug-In . SVG Version: 6.00 Build 0)  -->
<svg version="1.1" id="Layer_1" xmlns="http://www.w3.org/2000/svg" xmlns:xlink="http://www.w3.org/1999/xlink" x="0px" y="0px"
	 viewBox="0 0 250 250" style="enable-background:new 0 0 250 250;" xml:space="preserve">
<style type="text/css">
	.st0{fill:#C82779;}
	.st1{fill:#C4287A;}
	.st2{fill:#BB287C;}
	.st3{fill:#B8287D;}
	.st4{fill:#B5287E;}
	.st5{fill:#AE297F;}
	.st6{fill:#A42982;}
	.st7{fill:#A92981;}
	.st8{fill:#A72981;}
	.st9{fill:#A02A83;}
	.st10{fill:#912A87;}
	.st11{fill:#9C2A84;}
	.st12{fill:#992A85;}
	.st13{fill:#962A85;}
	.st14{fill:#8A2B88;}
	.st15{fill:#872B89;}
	.st16{fill:#842B8A;}
	.st17{fill:#7F2B8B;}
	.st18{fill:#772C8D;}
	.st19{fill:#792C8D;}
</style>
<g id="_x23_c82779ff">
	<path class="st0" d="M71.3,0h1c6.6,2,13.4,3.4,20.1,5.2c0.4,10.3,0.1,20.5,0.1,30.8c-7.1,0-14.1,0-21.2,0C71.3,24,71.3,12,71.3,0z"
		/>
</g>
<g id="_x23_c4287aff">
	<path class="st1" d="M114.2,36.4C159.4,25,204.7,14.1,250,3.1v20.3c-39.9,9.8-79.7,19.6-119.6,29.3c-5.4,1.4-10.8,2.8-16.3,3.7
		C113.6,49.7,113.6,43,114.2,36.4z"/>
</g>
<g id="_x23_bb287cff">
	<path class="st2" d="M71.3,36c7.1,0,14.1,0,21.2,0c-0.1,11.8,0.2,23.6-0.1,35.5c-7-1.1-13.9-2.7-20.8-4.3
		C71.1,56.8,71.4,46.4,71.3,36z"/>
</g>
<g id="_x23_b8287dff">
	<path class="st3" d="M174.3,62.2c25.2-6.2,50.5-12.2,75.7-18.6v20.9c-16,3.7-31.9,7.8-47.9,11.5c-0.1-0.7-0.4-2.1-0.5-2.7
		c-15.5-0.5-31,0-46.5-0.2c-7.2-0.2-14.5,0.7-21.6-0.5C146.8,68.4,160.7,65.7,174.3,62.2z"/>
</g>
<g id="_x23_b5287eff">
	<path class="st4" d="M0,64.2c16.6-3.9,33.1-8.7,49.8-11.8c0.4,6.7,0.4,13.4-0.1,20.1C33.2,76.6,16.5,80.4,0,84.8V64.2z"/>
</g>
<g id="_x23_ae297fff">
	<path class="st5" d="M99.4,80.5c11.4-2.5,22.5-5.9,34-8c7.2,1.2,14.4,0.3,21.6,0.5c15.5,0.2,31-0.3,46.5,0.2
		c0.1,0.7,0.4,2.1,0.5,2.7c-7.7,1.8-15.4,4.1-23.2,5.5l-0.8,0.2c-0.4,5.7-0.2,11.5-0.4,17.2c-6.8,0.3-13.5,0.2-20.3,0.2
		c0-4.2,0-8.4-0.2-12.5c-15.3,4.1-30.6,7.8-46.1,11.4c-5.6-3-12.1-1.8-18.2-1.9c-15.8,0-31.7,0-47.5,0c0.1-0.6,0.2-1.8,0.3-2.3
		C63.6,89.2,81.5,85,99.4,80.5z"/>
</g>
<g id="_x23_a42982ff">
	<path class="st6" d="M178.1,81.6l0.8-0.2c-0.4,16.7-0.1,33.3-0.2,50c-7.2-0.6-14.2-2.4-21.1-4.3c-0.4-9.4-0.1-18.8-0.1-28.1
		c6.8,0,13.5,0.2,20.3-0.2C177.9,93.1,177.7,87.3,178.1,81.6z"/>
</g>
<g id="_x23_a92981ff">
	<path class="st7" d="M200.2,96.5c16.7-3.6,33.1-8.2,49.8-11.9v20c-8.5,2-16.9,4.3-25.3,6.2c-8.2,1.9-16.2,4.4-24.5,5.6
		C199.7,109.8,199.8,103.1,200.2,96.5z"/>
</g>
<g id="_x23_a72981ff">
	<path class="st8" d="M0,105c15.1-4.3,30.5-7.5,45.7-11.4c-0.1,0.6-0.2,1.8-0.3,2.3c15.8,0,31.7,0,47.5,0c6.1,0.1,12.6-1.1,18.2,1.9
		c-37,9.3-74.2,18-111.2,27.4V105z"/>
</g>
<g id="_x23_a02a83ff">
	<path class="st9" d="M114.3,117.5c7.1-2,14.2-3.4,21.3-5.3c0.2,6.8,0.1,13.6,0,20.4c-7.2,1.8-14.4,3.8-21.7,4.9
		C113.8,130.8,113.4,124.1,114.3,117.5z"/>
</g>
<g id="_x23_912a87ff">
	<path class="st10" d="M71.2,127c0-2.8,0.1-5.7,0.5-8.5c0.7,10.1,0.1,20.3,0.5,30.4c6.7,0.3,13.5,0.2,20.2,0.2c0,4.8,0,9.7,0.2,14.6
		c16.8-4.4,33.8-8.7,50.8-12.5c6.2,1.5,12.4-0.3,18.6-0.1c17.9,0.2,35.7,0,53.6,0.1c-0.1,0.7-0.2,1.9-0.3,2.6
		c-47.9,11.9-96,23.5-143.9,35.4C71.2,168.3,71.4,147.6,71.2,127z"/>
</g>
<g id="_x23_9c2a84ff">
	<path class="st11" d="M71.7,118.5c7,1.2,13.9,2.4,20.8,4.4c0.1,8.7,0,17.4,0,26.2c-6.8,0-13.5,0.2-20.2-0.2
		C71.8,138.7,72.4,128.6,71.7,118.5z"/>
</g>
<g id="_x23_992a85ff">
	<path class="st12" d="M178.6,142.3c23.7-6.2,47.7-11.4,71.4-17.7V145c-11.4,3.4-23.2,5.7-34.7,8.6c0.1-0.7,0.2-1.9,0.3-2.6
		c-17.9-0.1-35.7,0.1-53.6-0.1c-6.2-0.2-12.4,1.6-18.6,0.1C155,147.8,166.9,145.2,178.6,142.3z"/>
</g>
<g id="_x23_962a85ff">
	<path class="st13" d="M23.6,139.6c8.7-2,17.3-4.7,26.2-6.1c0.5,6.7,0.4,13.4,0,20.1c-16.6,4.2-33.2,8-49.8,12.2v-20.3
		C7.8,143.4,15.7,141.4,23.6,139.6z"/>
</g>
<g id="_x23_8a2b88ff">
	<path class="st14" d="M200.3,177.5c16.6-4,33.2-7.9,49.7-12.3v20.5c-9.8,2.7-19.8,4.7-29.6,7.3c-6.8,1.5-13.4,3.5-20.3,4.5
		C199.7,190.9,199.7,184.2,200.3,177.5z"/>
</g>
<g id="_x23_872b89ff">
	<path class="st15" d="M0,186c16.6-4,33.2-8.4,49.9-12.1c0.3,6.8,0.5,13.7-0.2,20.5C33,198.1,16.5,202.4,0,206.5V186z"/>
</g>
<g id="_x23_842b8aff">
	<path class="st16" d="M157.4,178.7c7.1,0.9,14.1,2.7,21.1,4.2c0.4,10.7,0.1,21.4,0.2,32.1c-6.8,0-13.6-0.2-20.4,0.2
		c-0.3,9.9,0.1,19.9-0.5,29.8c-0.8-3.9-0.5-8-0.5-12C157.4,214.9,157.4,196.8,157.4,178.7z"/>
</g>
<g id="_x23_7f2b8bff">
	<path class="st17" d="M114.8,198.6c6.9-1.7,13.8-3.8,20.9-4.8c0.1,6.6,0.1,13.3,0,19.9c-9.8,2.5-19.5,5-29.4,7.2
		c-1.4-1.5-3-3.1-5.2-2.8c-13.7-0.1-27.4,0.1-41.1,0c-7.2-0.1-14.4,0.3-21.6-0.6c7.2-2.3,14.7-3.7,22-5.7
		C78.6,207.6,96.6,202.7,114.8,198.6z"/>
</g>
<g id="_x23_772c8dff">
	<path class="st18" d="M158.3,215.2c6.8-0.3,13.6-0.2,20.4-0.2c0,11.7,0,23.3,0,35h-2c-6.2-2-12.5-3.5-18.8-5
		C158.4,235.1,158,225.1,158.3,215.2z"/>
</g>
<g id="_x23_792c8dff">
	<path class="st19" d="M38.4,217.4c7.2,0.9,14.4,0.5,21.6,0.6c13.7,0,27.4-0.1,41.1,0c2.3-0.3,3.9,1.3,5.2,2.8
		c-35.4,8.8-70.8,17.6-106.3,26v-20.3C12.8,223.4,25.5,220.1,38.4,217.4z"/>
</g>
</svg>
